;FLAVOR:Marlin
;TIME:11583
;Filament used: 12.1943m
;Layer height: 0.2
;MINX:35.328
;MINY:29.058
;MINZ:0.2
;MAXX:179.296
;MAXY:136.258
;MAXZ:5
;Generated with Cura_SteamEngine 4.13.1
M140 S60
M105
M190 S60
M104 S200
M105
M109 S200
M82 ;absolute extrusion mode
G28 ;Home

G92 E0 ;Reset Extruder
G1 Z2.0 F3000 ;Move Z Axis up
G1 X10.1 Y20 Z0.28 F5000.0 ;Move to start position
G1 X10.1 Y190.0 Z0.28 F1500.0 E15 ;Draw the first line
G1 X10.4 Y190.0 Z0.28 F5000.0 ;Move to side a little
G1 X10.4 Y20 Z0.28 F1500.0 E30 ;Draw the second line
G92 E0 ;Reset Extruder
G1 Z2.0 F3000 ;Move Z Axis up
G92 E0
G92 E0
G1 F2700 E-2
;LAYER_COUNT:25
;LAYER:0
M107
G0 F9000 X36.325 Y30.189 Z0.2
;TYPE:SKIRT
G1 F2700 E0
G1 F1800 X36.722 Y29.829 E0.01782
G1 X37.169 Y29.531 E0.03569
G1 X37.654 Y29.303 E0.05352
G1 X38.168 Y29.15 E0.07135
G1 X38.836 Y29.068 E0.09374
G1 X39.258 Y29.058 E0.10778
G1 X175.042 Y29.058 E4.62397
G1 X175.74 Y29.068 E4.64719
G1 X176.274 Y29.116 E4.66502
G1 X176.795 Y29.242 E4.68285
G1 X177.292 Y29.445 E4.70071
G1 X177.753 Y29.719 E4.71854
G1 X178.168 Y30.058 E4.73637
G1 X178.528 Y30.456 E4.75422
G1 X178.825 Y30.902 E4.77204
G1 X179.053 Y31.388 E4.78989
G1 X179.205 Y31.902 E4.80772
G1 X179.287 Y32.566 E4.82997
G1 X179.296 Y32.882 E4.84049
G1 X179.279 Y82.642 E6.49551
G1 X179.253 Y131.994 E8.13697
G1 X179.244 Y132.653 E8.15889
G1 X179.196 Y133.187 E8.17672
G1 X179.07 Y133.709 E8.19458
G1 X178.868 Y134.205 E8.21239
G1 X178.595 Y134.667 E8.23024
G1 X178.255 Y135.082 E8.24809
G1 X177.858 Y135.442 E8.26591
G1 X177.412 Y135.74 E8.28375
G1 X176.927 Y135.968 E8.30158
G1 X176.413 Y136.121 E8.31941
G1 X175.746 Y136.203 E8.34176
G1 X175.392 Y136.213 E8.35354
G1 X107.296 Y136.241 E10.61843
G1 X39.551 Y136.258 E12.87163
G1 X38.894 Y136.25 E12.89349
G1 X38.36 Y136.203 E12.91132
G1 X37.838 Y136.078 E12.92917
G1 X37.341 Y135.877 E12.947
G1 X36.88 Y135.604 E12.96482
G1 X36.464 Y135.265 E12.98267
G1 X36.103 Y134.869 E13.00049
G1 X35.805 Y134.423 E13.01833
G1 X35.576 Y133.938 E13.03617
G1 X35.422 Y133.424 E13.05402
G1 X35.34 Y132.755 E13.07643
G1 X35.328 Y132.306 E13.09137
G1 X35.328 Y33.283 E16.38489
G1 X35.337 Y32.618 E16.40701
G1 X35.385 Y32.084 E16.42484
G1 X35.511 Y31.563 E16.44267
G1 X35.713 Y31.066 E16.46052
G1 X35.986 Y30.605 E16.47834
G1 X36.325 Y30.189 E16.49618
G0 F9000 X36.717 Y30.362
G1 F1800 X37.108 Y30.041 E16.51301
G1 X37.545 Y29.786 E16.52984
G1 X38.016 Y29.602 E16.54666
G1 X38.51 Y29.496 E16.56346
G1 X38.847 Y29.468 E16.57471
G1 X39.258 Y29.458 E16.58838
G1 X175.036 Y29.458 E21.10438
G1 X175.734 Y29.468 E21.12759
G1 X176.237 Y29.515 E21.1444
G1 X176.727 Y29.641 E21.16123
G1 X177.191 Y29.843 E21.17806
G1 X177.617 Y30.115 E21.19487
G1 X177.995 Y30.45 E21.21167
G1 X178.315 Y30.841 E21.22847
G1 X178.57 Y31.278 E21.2453
G1 X178.753 Y31.749 E21.26211
G1 X178.86 Y32.243 E21.27892
G1 X178.887 Y32.577 E21.29006
G1 X178.897 Y32.985 E21.30364
G1 X178.879 Y82.642 E22.95524
G1 X178.853 Y131.989 E24.59652
G1 X178.844 Y132.648 E24.61844
G1 X178.797 Y133.151 E24.63525
G1 X178.671 Y133.641 E24.65207
G1 X178.47 Y134.105 E24.66889
G1 X178.199 Y134.531 E24.68569
G1 X177.863 Y134.909 E24.70251
G1 X177.472 Y135.23 E24.71933
G1 X177.036 Y135.485 E24.73613
G1 X176.565 Y135.669 E24.75295
G1 X176.071 Y135.775 E24.76976
G1 X175.734 Y135.803 E24.781
G1 X175.291 Y135.814 E24.79574
G1 X107.296 Y135.841 E27.05726
G1 X39.556 Y135.858 E29.31031
G1 X38.899 Y135.85 E29.33216
G1 X38.396 Y135.804 E29.34896
G1 X37.906 Y135.679 E29.36578
G1 X37.441 Y135.479 E29.38261
G1 X37.015 Y135.208 E29.39941
G1 X36.636 Y134.873 E29.41623
G1 X36.315 Y134.482 E29.43306
G1 X36.059 Y134.046 E29.44987
G1 X35.875 Y133.575 E29.46669
G1 X35.767 Y133.081 E29.48351
G1 X35.739 Y132.743 E29.49479
G1 X35.728 Y132.306 E29.50933
G1 X35.728 Y33.289 E32.80265
G1 X35.737 Y32.624 E32.82477
G1 X35.784 Y32.12 E32.84161
G1 X35.91 Y31.631 E32.8584
G1 X36.111 Y31.167 E32.87522
G1 X36.382 Y30.74 E32.89204
G1 X36.717 Y30.362 E32.90884
G1 F2700 E30.90884
;MESH:logo.svg_10mm.stl
G0 F9000 X39.342 Y31.993
G0 X39.342 Y33.072
G0 X125.73 Y53.097
G0 X126.049 Y53.278
G0 X126.378 Y53.724
G0 X126.555 Y54.113
G0 X126.655 Y55.277
G0 X126.632 Y58.447
G0 X125.945 Y80.616
G0 X130.832 Y101.605
;TYPE:WALL-INNER
G1 F2700 E32.90884
G1 F1800 X135.257 Y101.605 E33.05602
G1 X135.994 Y101.602 E33.08053
G1 X136.556 Y101.594 E33.09922
G1 X136.98 Y101.578 E33.11333
G1 X137.344 Y101.552 E33.12547
G1 X137.867 Y101.436 E33.14329
G1 X138.232 Y101.269 E33.15664
G1 X138.568 Y101.048 E33.17002
G1 X138.926 Y100.701 E33.1866
G1 X139.199 Y100.262 E33.20379
G1 X139.36 Y99.892 E33.21721
G1 X139.442 Y99.646 E33.22584
G1 X139.74 Y98.154 E33.27644
G1 X140.057 Y96.542 E33.33109
G1 X140.462 Y94.445 E33.40212
G1 X141.49 Y89.071 E33.5841
G1 X143.35 Y79.249 E33.91659
G1 X144.485 Y73.299 E34.11805
G1 X144.842 Y71.448 E34.18075
G1 X145.063 Y70.303 E34.21954
G1 X145.234 Y71.457 E34.23921
G1 X146.361 Y79.016 E34.49341
G1 X147.814 Y88.794 E34.8222
G1 X148.62 Y94.145 E35.00218
G1 X149.188 Y97.849 E35.12681
G1 X149.421 Y99.32 E35.17635
G1 X149.495 Y99.604 E35.18611
G1 X149.651 Y100.052 E35.20189
G1 X149.919 Y100.57 E35.22129
G1 X150.29 Y101.004 E35.24028
G1 X150.676 Y101.292 E35.2563
G1 X151.25 Y101.512 E35.27674
G1 X151.795 Y101.577 E35.295
G1 X152.561 Y101.601 E35.32049
G1 X153.423 Y101.605 E35.34916
G1 X154.957 Y101.603 E35.40018
G1 X155.705 Y101.578 E35.42507
G1 X156.328 Y101.456 E35.44618
G1 X156.886 Y100.974 E35.47071
G1 X157.135 Y100.5 E35.48852
G1 X157.304 Y99.918 E35.50867
G1 X157.375 Y99.266 E35.53049
G1 X157.378 Y98.736 E35.54812
G1 X157.361 Y98.444 E35.55784
G1 X157.245 Y97.755 E35.58108
G1 X156.959 Y96.158 E35.63504
G1 X156.756 Y95.059 E35.67222
G1 X155.953 Y90.76 E35.81767
G1 X154.917 Y85.279 E36.0032
G1 X153.314 Y76.879 E36.28763
G1 X152.054 Y70.318 E36.50984
G1 X150.837 Y64.01 E36.72351
G1 X149.744 Y58.389 E36.91397
G1 X149.124 Y55.233 E37.02094
G1 X148.422 Y51.702 E37.14068
G1 X148.139 Y50.337 E37.18705
G1 X148.081 Y50.069 E37.19617
G1 X147.94 Y49.5 E37.21566
G1 X147.584 Y48.196 E37.26062
G1 X147.069 Y46.591 E37.31669
G1 X146.538 Y45.218 E37.36565
G1 X145.951 Y43.992 E37.41086
G1 X145.309 Y42.935 E37.45199
G1 X144.601 Y42.044 E37.48984
G1 X143.824 Y41.331 E37.52492
G1 X143.182 Y40.901 E37.55062
G1 X142.657 Y40.642 E37.57009
G1 X141.808 Y40.346 E37.59999
G1 X140.579 Y40.082 E37.6418
G1 X139.265 Y39.976 E37.68565
G1 X138.222 Y39.994 E37.72034
G1 X137.549 Y40.062 E37.74284
G1 X136.575 Y40.216 E37.77564
G1 X135.474 Y40.521 E37.81364
G1 X134.524 Y40.977 E37.84869
G1 X133.873 Y41.441 E37.87528
G1 X133.523 Y41.765 E37.89114
G1 X133.115 Y42.209 E37.91119
G1 X132.724 Y42.874 E37.93685
G1 X132.528 Y43.651 E37.96351
G1 X132.462 Y44.343 E37.98663
G1 X132.442 Y44.799 E38.00181
G1 X132.443 Y45.454 E38.02359
G1 X132.488 Y46.343 E38.0532
G1 X132.58 Y47.166 E38.08074
G1 X132.674 Y47.69 E38.09845
G1 X132.772 Y48.041 E38.11057
G1 X132.944 Y48.408 E38.12405
G1 X133.223 Y48.826 E38.14077
G1 X133.584 Y49.186 E38.15772
G1 X134.063 Y49.466 E38.17618
G1 X134.541 Y49.466 E38.19207
G1 X135.137 Y49.32 E38.21248
G1 X135.614 Y49.193 E38.2289
G1 X136.461 Y48.959 E38.25813
G1 X137.295 Y48.733 E38.28687
G1 X137.976 Y48.579 E38.31009
G1 X138.273 Y48.548 E38.32002
G1 X138.406 Y48.569 E38.3245
G1 X138.519 Y48.64 E38.32894
G1 X138.844 Y48.977 E38.34451
G1 X139.194 Y49.545 E38.3667
G1 X139.427 Y50.076 E38.38599
G1 X139.569 Y50.506 E38.40105
G1 X139.753 Y51.34 E38.42945
G1 X139.938 Y52.67 E38.47412
G1 X140.007 Y53.997 E38.51831
G1 X139.982 Y54.769 E38.544
G1 X139.934 Y55.091 E38.55483
G1 X139.887 Y55.377 E38.56447
G1 X139.808 Y55.819 E38.5794
G1 X139.707 Y56.345 E38.59722
G1 X139.58 Y56.969 E38.6184
G1 X139.421 Y57.708 E38.64354
G1 X139.229 Y58.58 E38.67324
G1 X138.725 Y60.793 E38.74873
G1 X138.033 Y63.74 E38.84941
G1 X137.122 Y67.571 E38.98038
G1 X136.575 Y69.861 E39.05869
G1 X133.592 Y82.284 E39.48363
G1 X131.93 Y89.25 E39.72182
G1 X130.932 Y93.462 E39.86579
G1 X130.421 Y95.636 E39.94007
G1 X130.058 Y97.208 E39.99373
G1 X129.937 Y97.746 E40.01207
G1 X129.822 Y98.272 E40.02998
G1 X129.79 Y98.565 E40.03978
G1 X129.772 Y99.118 E40.05818
G1 X129.82 Y99.803 E40.08102
G1 X129.963 Y100.423 E40.10219
G1 X130.176 Y100.897 E40.11947
G1 X130.832 Y101.605 E40.15157
G0 F9000 X131.007 Y101.205
G1 F1800 X135.256 Y101.205 E40.2929
G1 X135.99 Y101.202 E40.31731
G1 X136.546 Y101.194 E40.3358
G1 X136.958 Y101.179 E40.34952
G1 X137.286 Y101.155 E40.36045
G1 X137.739 Y101.055 E40.37588
G1 X138.038 Y100.918 E40.38682
G1 X138.317 Y100.735 E40.39792
G1 X138.612 Y100.448 E40.41161
G1 X138.844 Y100.076 E40.42619
G1 X138.986 Y99.748 E40.43808
G1 X139.055 Y99.543 E40.44527
G1 X139.348 Y98.076 E40.49503
G1 X139.664 Y96.466 E40.5496
G1 X140.069 Y94.369 E40.62064
G1 X141.097 Y88.996 E40.80258
G1 X142.957 Y79.175 E41.13504
G1 X144.092 Y73.223 E41.33657
G1 X144.887 Y69.1 E41.47623
G1 X144.966 Y68.689 E41.49015
G1 X145.112 Y67.945 E41.51536
G1 X145.218 Y68.65 E41.52266
G1 X145.28 Y69.064 E41.5341
G1 X145.51 Y70.584 E41.58523
G1 X146.757 Y78.956 E41.86676
G1 X148.21 Y88.734 E42.19555
G1 X149.015 Y94.085 E42.37553
G1 X149.583 Y97.787 E42.50009
G1 X149.813 Y99.238 E42.54896
G1 X149.878 Y99.488 E42.55755
G1 X150.019 Y99.893 E42.57181
G1 X150.253 Y100.345 E42.58874
G1 X150.565 Y100.71 E42.60471
G1 X150.871 Y100.938 E42.6174
G1 X151.347 Y101.121 E42.63437
G1 X151.825 Y101.178 E42.65038
G1 X152.568 Y101.201 E42.6751
G1 X153.424 Y101.205 E42.70357
G1 X154.95 Y101.203 E42.75433
G1 X155.66 Y101.179 E42.77796
G1 X156.147 Y101.084 E42.79446
G1 X156.567 Y100.721 E42.81292
G1 X156.762 Y100.35 E42.82686
G1 X156.91 Y99.84 E42.84452
G1 X156.975 Y99.243 E42.8645
G1 X156.978 Y98.746 E42.88103
G1 X156.963 Y98.489 E42.88959
G1 X156.851 Y97.824 E42.91202
G1 X156.565 Y96.23 E42.96588
G1 X156.363 Y95.132 E43.00302
G1 X155.56 Y90.833 E43.14847
G1 X154.524 Y85.353 E43.33397
G1 X152.921 Y76.954 E43.61836
G1 X151.661 Y70.393 E43.84057
G1 X150.444 Y64.086 E44.05421
G1 X149.351 Y58.465 E44.24467
G1 X148.732 Y55.31 E44.3516
G1 X148.03 Y51.782 E44.47125
G1 X147.748 Y50.42 E44.51751
G1 X147.691 Y50.16 E44.52636
G1 X147.553 Y49.601 E44.54551
G1 X147.2 Y48.31 E44.59003
G1 X146.692 Y46.724 E44.64542
G1 X146.171 Y45.377 E44.69345
G1 X145.599 Y44.183 E44.73749
G1 X144.98 Y43.164 E44.77714
G1 X144.307 Y42.317 E44.81312
G1 X143.576 Y41.646 E44.84613
G1 X142.982 Y41.248 E44.86991
G1 X142.502 Y41.012 E44.8877
G1 X141.7 Y40.732 E44.91595
G1 X140.521 Y40.479 E44.95606
G1 X139.252 Y40.376 E44.9984
G1 X138.246 Y40.394 E45.03187
G1 X137.6 Y40.459 E45.05346
G1 X136.66 Y40.608 E45.08512
G1 X135.615 Y40.897 E45.12118
G1 X134.728 Y41.323 E45.15391
G1 X134.126 Y41.752 E45.17849
G1 X133.806 Y42.048 E45.19299
G1 X133.438 Y42.448 E45.21107
G1 X133.098 Y43.027 E45.2334
G1 X132.923 Y43.719 E45.25714
G1 X132.861 Y44.371 E45.27893
G1 X132.842 Y44.807 E45.29344
G1 X132.843 Y45.444 E45.31463
G1 X132.887 Y46.311 E45.3435
G1 X132.976 Y47.109 E45.37021
G1 X133.064 Y47.601 E45.38683
G1 X133.148 Y47.901 E45.39719
G1 X133.293 Y48.211 E45.40858
G1 X133.534 Y48.571 E45.42299
G1 X133.83 Y48.867 E45.43691
G1 X134.171 Y49.066 E45.45004
G1 X134.493 Y49.066 E45.46075
G1 X135.038 Y48.932 E45.47942
G1 X135.51 Y48.807 E45.49566
G1 X136.055 Y48.658 E45.51445
G1 X136.356 Y48.573 E45.52485
G1 X137.198 Y48.345 E45.55387
G1 X137.911 Y48.183 E45.57818
G1 X138.285 Y48.144 E45.59069
G1 X138.549 Y48.187 E45.59959
G1 X138.772 Y48.326 E45.60833
G1 X139.162 Y48.731 E45.62703
G1 X139.55 Y49.36 E45.65161
G1 X139.802 Y49.935 E45.67249
G1 X139.956 Y50.403 E45.68888
G1 X140.146 Y51.262 E45.71814
G1 X140.336 Y52.629 E45.76404
G1 X140.407 Y54.001 E45.80974
G1 X140.381 Y54.808 E45.83659
G1 X140.329 Y55.156 E45.84829
G1 X140.281 Y55.447 E45.8581
G1 X140.201 Y55.895 E45.87324
G1 X140.099 Y56.425 E45.89119
G1 X139.971 Y57.053 E45.91251
G1 X139.812 Y57.794 E45.93771
G1 X139.619 Y58.669 E45.96752
G1 X139.387 Y59.691 E46.00237
G1 X139.114 Y60.882 E46.04301
G1 X138.422 Y63.833 E46.14383
G1 X137.511 Y67.664 E46.2748
G1 X136.964 Y69.954 E46.35311
G1 X133.981 Y82.377 E46.77804
G1 X132.319 Y89.343 E47.01624
G1 X131.321 Y93.555 E47.16021
G1 X130.81 Y95.727 E47.23442
G1 X130.448 Y97.297 E47.28801
G1 X130.327 Y97.833 E47.30628
G1 X130.217 Y98.337 E47.32344
G1 X130.189 Y98.593 E47.33201
G1 X130.172 Y99.11 E47.34921
G1 X130.217 Y99.744 E47.37035
G1 X130.344 Y100.295 E47.38916
G1 X130.514 Y100.673 E47.40294
G1 X131.007 Y101.205 E47.42707
G0 F9000 X131.182 Y100.805
;TYPE:WALL-OUTER
G1 F1800 X135.255 Y100.805 E47.56254
G1 X135.986 Y100.802 E47.58685
G1 X136.536 Y100.794 E47.60514
G1 X136.936 Y100.78 E47.61846
G1 X137.228 Y100.758 E47.6282
G1 X137.611 Y100.674 E47.64124
G1 X137.844 Y100.567 E47.64977
G1 X138.065 Y100.422 E47.65856
G1 X138.298 Y100.195 E47.66938
G1 X138.489 Y99.89 E47.68135
G1 X138.612 Y99.605 E47.69167
G1 X138.668 Y99.439 E47.6975
G1 X138.956 Y97.998 E47.74637
G1 X139.271 Y96.39 E47.80087
G1 X139.676 Y94.293 E47.87191
G1 X140.704 Y88.921 E48.05382
G1 X142.564 Y79.101 E48.38624
G1 X143.699 Y73.147 E48.58784
G1 X144.574 Y68.613 E48.74142
G1 X144.881 Y67.052 E48.79434
G1 X145.147 Y65.73 E48.83919
G1 X145.173 Y65.683 E48.84098
G1 X145.364 Y66.926 E48.8828
G1 X145.906 Y70.524 E49.00382
G1 X147.153 Y78.896 E49.28535
G1 X148.606 Y88.674 E49.61414
G1 X149.411 Y94.025 E49.79412
G1 X149.73 Y96.117 E49.8645
G1 X149.978 Y97.725 E49.91861
G1 X150.205 Y99.156 E49.96681
G1 X150.261 Y99.372 E49.97423
G1 X150.387 Y99.734 E49.98698
G1 X150.587 Y100.12 E50.00144
G1 X150.84 Y100.416 E50.01439
G1 X151.066 Y100.584 E50.02375
G1 X151.444 Y100.73 E50.03723
G1 X151.855 Y100.779 E50.051
G1 X152.575 Y100.801 E50.07496
G1 X153.425 Y100.805 E50.10323
G1 X154.943 Y100.803 E50.15372
G1 X155.615 Y100.78 E50.17608
G1 X155.966 Y100.712 E50.18797
G1 X156.248 Y100.468 E50.20037
G1 X156.389 Y100.2 E50.21045
G1 X156.516 Y99.762 E50.22561
G1 X156.575 Y99.22 E50.24375
G1 X156.578 Y98.756 E50.25918
G1 X156.565 Y98.534 E50.26658
G1 X156.457 Y97.893 E50.2882
G1 X156.171 Y96.301 E50.34199
G1 X155.97 Y95.205 E50.37906
G1 X155.167 Y90.906 E50.52451
G1 X154.131 Y85.427 E50.70998
G1 X152.528 Y77.029 E50.99434
G1 X151.268 Y70.468 E51.21654
G1 X150.051 Y64.162 E51.43015
G1 X148.958 Y58.541 E51.62061
G1 X148.339 Y55.387 E51.72751
G1 X147.837 Y52.854 E51.8134
G1 X147.638 Y51.861 E51.84708
G1 X147.357 Y50.504 E51.89318
G1 X147.301 Y50.251 E51.90179
G1 X147.166 Y49.702 E51.9206
G1 X146.816 Y48.424 E51.96467
G1 X146.315 Y46.857 E52.01939
G1 X145.804 Y45.536 E52.0665
G1 X145.247 Y44.374 E52.10936
G1 X144.651 Y43.393 E52.14753
G1 X144.013 Y42.59 E52.18164
G1 X143.328 Y41.961 E52.21258
G1 X142.782 Y41.595 E52.23444
G1 X142.347 Y41.382 E52.25055
G1 X141.592 Y41.118 E52.27715
G1 X140.463 Y40.876 E52.31555
G1 X139.239 Y40.776 E52.3564
G1 X138.27 Y40.794 E52.38864
G1 X137.651 Y40.856 E52.40933
G1 X136.745 Y41 E52.43984
G1 X135.756 Y41.273 E52.47396
G1 X134.932 Y41.669 E52.50437
G1 X134.379 Y42.063 E52.52695
G1 X134.089 Y42.331 E52.54009
G1 X133.761 Y42.687 E52.55619
G1 X133.472 Y43.18 E52.57519
G1 X133.318 Y43.787 E52.59602
G1 X133.26 Y44.399 E52.61647
G1 X133.242 Y44.815 E52.63032
G1 X133.243 Y45.434 E52.65091
G1 X133.286 Y46.279 E52.67905
G1 X133.372 Y47.052 E52.70492
G1 X133.454 Y47.512 E52.72046
G1 X133.524 Y47.761 E52.72906
G1 X133.642 Y48.014 E52.73834
G1 X133.845 Y48.316 E52.75045
G1 X134.076 Y48.548 E52.76134
G1 X134.279 Y48.666 E52.76915
G1 X134.444 Y48.666 E52.77463
G1 X134.939 Y48.544 E52.79159
G1 X135.406 Y48.421 E52.80765
G1 X135.948 Y48.273 E52.82634
G1 X136.247 Y48.188 E52.83668
G1 X137.109 Y47.955 E52.86638
G1 X137.846 Y47.787 E52.89152
G1 X138.298 Y47.74 E52.90663
G1 X138.692 Y47.805 E52.91992
G1 X139.024 Y48.011 E52.93291
G1 X139.483 Y48.488 E52.95493
G1 X139.903 Y49.17 E52.98157
G1 X140.177 Y49.794 E53.00423
G1 X140.344 Y50.302 E53.02202
G1 X140.539 Y51.182 E53.052
G1 X140.734 Y52.588 E53.09921
G1 X140.807 Y54.005 E53.1464
G1 X140.78 Y54.845 E53.17436
G1 X140.724 Y55.222 E53.18703
G1 X140.675 Y55.517 E53.19698
G1 X140.594 Y55.971 E53.21232
G1 X140.491 Y56.505 E53.23041
G1 X140.362 Y57.136 E53.25183
G1 X140.203 Y57.881 E53.27716
G1 X140.009 Y58.756 E53.30697
G1 X139.777 Y59.781 E53.34193
G1 X139.503 Y60.972 E53.38257
